!!!COM: Haydn, Franz Joseph
!!!OTL: String Quartet in G major
!!!OPS: Opus 09
!!!ONM: No. 3
!!!OMD: Menuetto
!!!OMV: 2
!!!SCT: H /disk/dos2/musedata_2000/haydn/traut/quart/op09n3/stage1/02
!!!SCA: Thematisch-bibliographisches Werkevererzeichnis (A. van Hoboken)
!!!YOR: Trautwein Edition
!!!ENC: Frances Bennion
!!!CDT: 1732/3/31/-1809/5/31/
!!!CNT: Oesterreich
!!!YEC: Copyright (c) 1994, 2000 Center for Computer Assisted Research in the Humanities
!!!YEM: Rights to all derivative editions reserved.
!!!YEM: Refer to licensing agreement for further details.
!!!YEN: United States of America
**kern	**kern	**kern	**kern
*k[f#]	*k[f#]	*k[f#]	*k[f#]
*G:	*G:	*G:	*G:
*clefF4	*clefC3	*clefG	*clefG
*M3/4	*M3/4	*M3/4	*M3/4
4r	4r	2.d	2.dd
4B	4B	.	.
4G	4G	.	.
=2	=2	=2	=2
4r	4r	2.e	2.ee
4c	4c	.	.
4G	4G	.	.
=3	=3	=3	=3
4r	4r	2.f	2.ff
4d	4d	.	.
4G	4G	.	.
=4	=4	=4	=4
4c	4c	4e	4ee
4A	4A	4f#	4ff#
4B	4B	4g	4gg
=5	=5	=5	=5
4F#	4F#	4a	4aa
4G	4G	4b	4bb
4A	4A	4cc	4ccc
=6	=6	=6	=6
4B	4B	4dd	4ddd
2r	4r	4r	4r
.	4b	4dd	12gg
.	.	.	12aa
.	.	.	12gg
=7	=7	=7	=7
2.r	4a	4cc	4ff#
.	4r	4r	4dd
.	4b	4dd	12gg
.	.	.	12aa
.	.	.	12gg
=8	=8	=8	=8
2.r	4a	4cc	4ff#
.	4r	4r	4ccc
.	4b	4dd	12gg
.	.	.	12aa
.	.	.	12gg
=9	=9	=9	=9
2.r	4a	4cc	4ff#
.	4r	4r	4dd
.	4b	4dd	12gg
.	.	.	12aa
.	.	.	12gg
=10	=10	=10	=10
4r	4a	4cc	4ff#
4F#	4d	4aa	4ccc
4G	4d	4gg	4bb
=11	=11	=11	=11
4C	4e	4ee	4aa
4D	4d	4b	4gg
4D	4d	4a	4ff#
=12	=12	=12	=12
4GG	4G	4g	4gg
4G	2r	2r	2r
4GG	.	.	.
=13	=13	=13	=13
4r	4r	2b	2bb
4G	4g	.	.
4F#	4f#	4d#	4dd#
=14	=14	=14	=14
4G	4g	4e	4ee
4E	4e	4g	4gg
4G	4g	4e	4ee
=15	=15	=15	=15
2A	2a	4c#	4cc#
.	.	4A	4a
4G	4g	4c#	4cc#
=16	=16	=16	=16
4F	4f	4d	4dd
4D	4d	4f	4ff
4F	4f	4d	4dd
=17	=17	=17	=17
2G	2g	4B	4b
.	.	4G	4g
4F	4f	4B	4b
=18	=18	=18	=18
4E	4e	4c	4cc
4D	4d	4d	4dd
4C	4c	4e	4ee
=19	=19	=19	=19
4BB	4B	2.d	2.dd
4B	4B	.	.
4G	4G	.	.
=20	=20	=20	=20
4r	4r	2.e	2.ee
4c	4c	.	.
4G	4G	.	.
=21	=21	=21	=21
4r	4r	2.f	2.ff
4d	4d	.	.
4G	4G	.	.
=22	=22	=22	=22
4c	4c	4e	4ee
4A	4A	4f#	4ff#
4B	4B	4g	4gg
=23	=23	=23	=23
4F#	4F#	4a	4aa
4G	4G	4b	4bb
4A	4A	4cc	4ccc
=24	=24	=24	=24
4B	4B	4dd	4ddd
2r	4r	4r	4r
.	4b	4dd	12gg
.	.	.	12aa
.	.	.	12gg
=25	=25	=25	=25
2.r	4a	4cc	4ff#
.	4r	4r	4dd
.	4b	4dd	12gg
.	.	.	12aa
.	.	.	12gg
=26	=26	=26	=26
2.r	4a	4cc	4ff#
.	4r	4r	4ccc
.	4b	4dd	12gg
.	.	.	12aa
.	.	.	12gg
=27	=27	=27	=27
2.r	4a	4cc	4ff#
.	4r	4r	4dd
.	4b	4dd	12gg
.	.	.	12aa
.	.	.	12gg
=28	=28	=28	=28
4r	4a	4cc	4ff#
4F#	4d	4aa	4ccc
4G	4d	4gg	4bb
=29	=29	=29	=29
4C	4e	4ee	4aa
4D	4d	4b	4gg
4D	4d	4a	4ff#
=30	=30	=30	=30
4GG	4G	4g	4gg
4G	2r	2r	2r
4GG	.	.	.
=31	=31	=31	=31
2.r	2.r	4r	2dd
.	.	4b	.
.	.	[4g	4ee
=32	=32	=32	=32
2.r	2.r	4g]	4cc#
.	.	4f#	[2dd
.	.	4d	.
=33	=33	=33	=33
2.r	2.r	[2.e	4dd]
.	.	.	4g
.	.	.	4cc
=34	=34	=34	=34
2r	2r	4e]	4f#
.	.	4d	[2b
4G	4G	4B	.
=35	=35	=35	=35
[2.c	2.c	2.e	4b]
.	.	.	4e
.	.	.	4a
=36	=36	=36	=36
4c]	4A	2.d	4f#
4B	2B	.	2g
4BB	.	.	.
=37	=37	=37	=37
4C	4c	2e	4e
4AA	4A	.	4cc
4D	4d	8c	8a
.	.	8A	8f#
=38	=38	=38	=38
4GG	4G	4B	4g
4G	2r	2r	2r
4GG	.	.	.
=39	=39	=39	=39
4r	4r	4r	2d
4BB	4B	4d	.
4GG	4G	4B	4g
=40	=40	=40	=40
2C	2c	2e	4e
.	.	.	[2a
4AA	4A	4c	.
=41	=41	=41	=41
2D	2d	2f#	4a]
.	.	.	4f#
4BB	4B	4d	4b
=42	=42	=42	=42
2E	2e	2g	4g
.	.	.	[2cc
4C	4c	4e	.
=43	=43	=43	=43
2F#	2f#	2a	4cc]
.	.	.	4a
4D	4d	4f#	[4dd
=44	=44	=44	=44
4G	4g	4b	4dd]
2r	4r	4r	4b
.	[4g	4bb	4ee
=45	=45	=45	=45
2.r	4g]	2.aa	4cc#
.	4f#	.	[2dd
.	4d	.	.
=46	=46	=46	=46
2.r	2e	2.gg	4dd]
.	.	.	4g
.	4A	.	4cc
=47	=47	=47	=47
2r	2d	2.ff#	4f#
.	.	.	[2b
4G	4G	.	.
=48	=48	=48	=48
[2.c	2.c	2.ee	4b]
.	.	.	4e
.	.	.	4a
=49	=49	=49	=49
4c]	4A	2.dd	4f#
4B	4B	.	2g
4BB	4d	.	.
=50	=50	=50	=50
4C	2e	4dd	4e
4AA	.	4cc	4cc
4D	8c	8a	8a
.	8A	8f#	8f#
=51	=51	=51	=51
4GG	4B	4g	4g
4G	2r	2r	2r
4GG	.	.	.
==	==	==	==
*-	*-	*-	*-
!!!RWG1: This file contains only pitch and duration data.
!!!RWG2: Transposing instruments are not transposed.
!!!RWG3: Spines may have incompatible meters.
!!!RWG4: Durations of rests and tied notes may be interpreted.
!!!RWG: Key is interpreted using the Humdrum key tool.
!!!AFT: stage1
!!!END: 1997/04/15
!!!KEY: 3153156977
!!!EMD: Converted from MuseData to Humdrum Dec 16, 2000, by Andreas Kornstaedt using muse2kern.
!!!EMD: Manual editing by Craig Sapp, Nov 2001
